src/actions/32/zoom-fit-best.svg

<svg viewBox="0 0 32 32" xmlns="http://www.w3.org/2000/svg">
 <defs>
  <style type="text/css">.ColorScheme-Text {
        color:#2e3440;
      }</style>
 </defs>
 <path class="ColorScheme-Text" d="m4 4v5h1v-4h4v-1zm12 0-3 3h6zm7 0v1h4v4h1v-5zm-14 5v14h14v-14zm-1-1h16v16h-16zm-1 5-3 3 3 3zm18 0v6l3-3zm-21 10v5h5v-1h-4v-4zm23 0v4h-4v1h5v-5zm-14 2 3 3 3-3z" fill="currentColor"/>
</svg>

<svg xmlns="http://www.w3.org/2000/svg" viewBox="0 0 32 32">
  <defs id="defs3051">
    <style type="text/css" id="current-color-scheme">
      .ColorScheme-Text {
        color:#2e3440;
      }
      </style>
  </defs>
 <path 
    style="fill:currentColor;fill-opacity:1;stroke:none" 
	d="M 4,4 4,9 5,9 5,5 9,5 9,4 Z m 12,0 -3,3 6,0 z m 7,0 0,1 4,0 0,4 1,0 0,-5 z M 9,9 9,23 23,23 23,9 Z M 8,8 24,8 24,24 8,24 Z m -1,5 -3,3 3,3 z m 18,0 0,6 3,-3 z m -21,10 0,5 5,0 0,-1 -4,0 0,-4 z m 23,0 0,4 -4,0 0,1 5,0 0,-5 z m -14,2 3,3 3,-3 z"
	class="ColorScheme-Text"
    />  
</svg>
